elementary-icon-theme/elementary/apps/48/miro.svg

<?xml version="1.0" encoding="UTF-8" standalone="no"?>
<!-- Created with Inkscape (http://www.inkscape.org/) -->

<svg
   xmlns:dc="http://purl.org/dc/elements/1.1/"
   xmlns:cc="http://creativecommons.org/ns#"
   xmlns:rdf="http://www.w3.org/1999/02/22-rdf-syntax-ns#"
   xmlns:svg="http://www.w3.org/2000/svg"
   xmlns="http://www.w3.org/2000/svg"
   xmlns:xlink="http://www.w3.org/1999/xlink"
   xmlns:sodipodi="http://sodipodi.sourceforge.net/DTD/sodipodi-0.dtd"
   xmlns:inkscape="http://www.inkscape.org/namespaces/inkscape"
   width="48px"
   height="48px"
   id="svg4511"
   version="1.1"
   inkscape:version="0.48.0 r9654"
   sodipodi:docname="miro.svg">
  <defs
     id="defs4513">
    <linearGradient
       inkscape:collect="always"
       xlink:href="#linearGradient3202"
       id="linearGradient2411"
       gradientUnits="userSpaceOnUse"
       gradientTransform="matrix(1.0395395,0,0,0.9504295,2.4213254,1.5862551)"
       x1="22.885227"
       y1="17.628952"
       x2="22.885227"
       y2="30.889549" />
    <linearGradient
       id="linearGradient3202">
      <stop
         id="stop3204"
         style="stop-color:#ffffff;stop-opacity:1"
         offset="0" />
      <stop
         id="stop3206"
         style="stop-color:#d3eefc;stop-opacity:1"
         offset="1" />
    </linearGradient>
    <linearGradient
       inkscape:collect="always"
       xlink:href="#linearGradient4008"
       id="linearGradient4017"
       gradientUnits="userSpaceOnUse"
       x1="27.490683"
       y1="18.038673"
       x2="27.490683"
       y2="32.229481"
       gradientTransform="matrix(0.99435028,0,0,0.99047619,0.15536723,0.23809537)" />
    <linearGradient
       id="linearGradient4008">
      <stop
         style="stop-color:#000000;stop-opacity:1;"
         offset="0"
         id="stop4010" />
      <stop
         style="stop-color:#000000;stop-opacity:0;"
         offset="1"
         id="stop4012" />
    </linearGradient>
    <linearGradient
       inkscape:collect="always"
       xlink:href="#linearGradient3958"
       id="linearGradient4373"
       gradientUnits="userSpaceOnUse"
       gradientTransform="translate(-48.035557,2.6691903)"
       x1="73.527817"
       y1="4.4173088"
       x2="73.527817"
       y2="41.293415" />
    <linearGradient
       id="linearGradient3958">
      <stop
         offset="0"
         style="stop-color:#ffffff;stop-opacity:1;"
         id="stop3960" />
      <stop
         id="stop3962"
         style="stop-color:#ffffff;stop-opacity:0.23529412;"
         offset="0.18117517" />
      <stop
         offset="0.8803705"
         style="stop-color:#ffffff;stop-opacity:0.15686275;"
         id="stop3964" />
      <stop
         offset="1"
         style="stop-color:#ffffff;stop-opacity:0.39215687;"
         id="stop3966" />
    </linearGradient>
    <radialGradient
       inkscape:collect="always"
       xlink:href="#linearGradient3242"
       id="radialGradient4376"
       gradientUnits="userSpaceOnUse"
       gradientTransform="matrix(0,1.6958206,-1.7757718,0,30.273358,-47.575099)"
       cx="32.806725"
       cy="3.5327499"
       fx="32.806725"
       fy="3.5327499"
       r="23" />
    <linearGradient
       id="linearGradient3242">
      <stop
         id="stop3244"
         style="stop-color:#f8b17e;stop-opacity:1"
         offset="0" />
      <stop
         id="stop3246"
         style="stop-color:#e35d4f;stop-opacity:1"
         offset="0.26238" />
      <stop
         id="stop3248"
         style="stop-color:#c6262e;stop-opacity:1"
         offset="0.66093999" />
      <stop
         id="stop3250"
         style="stop-color:#690b54;stop-opacity:1"
         offset="1" />
    </linearGradient>
    <linearGradient
       inkscape:collect="always"
       xlink:href="#linearGradient2490"
       id="linearGradient4378"
       gradientUnits="userSpaceOnUse"
       gradientTransform="translate(51.417219,1.3502815)"
       x1="-23.916132"
       y1="43.707703"
       x2="-23.916132"
       y2="4.6497173" />
    <linearGradient
       id="linearGradient2490">
      <stop
         id="stop2492"
         style="stop-color:#791235;stop-opacity:1"
         offset="0" />
      <stop
         id="stop2494"
         style="stop-color:#dd3b27;stop-opacity:1"
         offset="1" />
    </linearGradient>
    <linearGradient
       id="linearGradient8838">
      <stop
         id="stop8840"
         style="stop-color:#000000;stop-opacity:1"
         offset="0" />
      <stop
         id="stop8842"
         style="stop-color:#000000;stop-opacity:0"
         offset="1" />
    </linearGradient>
    <radialGradient
       r="10.625"
       fy="4.625"
       fx="62.625"
       cy="4.625"
       cx="62.625"
       gradientTransform="matrix(2.1647059,0,0,0.8470576,-111.5647,35.082353)"
       gradientUnits="userSpaceOnUse"
       id="radialGradient4509"
       xlink:href="#linearGradient8838"
       inkscape:collect="always" />
  </defs>
  <sodipodi:namedview
     id="base"
     pagecolor="#ffffff"
     bordercolor="#666666"
     borderopacity="1.0"
     inkscape:pageopacity="0.0"
     inkscape:pageshadow="2"
     inkscape:zoom="7"
     inkscape:cx="24"
     inkscape:cy="24"
     inkscape:current-layer="layer1"
     showgrid="true"
     inkscape:grid-bbox="true"
     inkscape:document-units="px"
     inkscape:window-width="447"
     inkscape:window-height="446"
     inkscape:window-x="415"
     inkscape:window-y="167"
     inkscape:window-maximized="0" />
  <metadata
     id="metadata4516">
    <rdf:RDF>
      <cc:Work
         rdf:about="">
        <dc:format>image/svg+xml</dc:format>
        <dc:type
           rdf:resource="http://purl.org/dc/dcmitype/StillImage" />
        <dc:title></dc:title>
      </cc:Work>
    </rdf:RDF>
  </metadata>
  <g
     id="layer1"
     inkscape:label="Layer 1"
     inkscape:groupmode="layer">
    <path
       inkscape:connector-curvature="0"
       style="opacity:0.3;fill:url(#radialGradient4509);fill-opacity:1;fill-rule:evenodd;stroke:none;stroke-width:0.99999988;marker:none;visibility:visible;display:inline;overflow:visible"
       id="path8836"
       d="m 47.000007,39 c 0,4.970562 -10.297452,8.999999 -23,8.999999 -12.702548,0 -23.0000002,-4.029437 -23.0000002,-8.999999 0,-4.970563 10.2974522,-9 23.0000002,-9 12.702548,0 23,4.029437 23,9 l 0,0 z" />
    <path
       inkscape:connector-curvature="0"
       style="fill:url(#radialGradient4376);fill-opacity:1;fill-rule:evenodd;stroke:url(#linearGradient4378);stroke-width:0.99999988px;stroke-linecap:butt;stroke-linejoin:miter;stroke-opacity:1"
       id="path2421"
       d="m 1.5000006,31.761226 c 0,0 8.6156074,-16.113497 20.9588934,-22.5317853 7.194385,-3.7409511 18.785999,-4.7008857 23.971236,4.0909973 0,0 1.746744,23.099513 -12.227206,29.602317 0,0 -14.459155,7.764543 -32.7029234,-11.161529 z" />
    <path
       inkscape:connector-curvature="0"
       style="opacity:0.5;color:#000000;fill:none;stroke:url(#linearGradient4373);stroke-width:1;stroke-linecap:round;stroke-linejoin:round;stroke-miterlimit:4;stroke-opacity:1;stroke-dasharray:none;stroke-dashoffset:0;marker:none;visibility:visible;display:inline;overflow:visible;enable-background:accumulate"
       id="path3238"
       d="m 31.90625,7.4999996 c -3.224922,0.2425668 -6.42029,1.2210969 -9,2.5625004 -11.199206,5.823387 -19.2155165,19.763128 -20.1875,21.5 8.765316,8.874802 16.488582,11.531904 22.03125,11.9375 5.657274,0.413983 9,-1.40625 9,-1.40625 0.01017,-0.01066 0.02059,-0.02108 0.03125,-0.03125 C 40.364812,38.998827 43.337844,31.95008 44.625,25.5 45.868154,19.27042 45.525212,13.993747 45.5,13.625 42.448467,8.6273581 37.213852,7.1007812 31.90625,7.4999996 z" />
    <g
       id="g4249">
      <path
         inkscape:connector-curvature="0"
         d="m 16,30.999999 c 1.225378,0 3.774622,0 5,0 0.02003,-2.69044 -0.08349,-5.382579 0,-8.07176 0,-1.434446 0.209448,-2.71704 1.896799,-2.71704 1.935845,0 2.089684,0.969817 2.089684,2.817071 0,1.688236 0,6.283493 0,7.971729 1.225377,0 3.78814,1e-6 5.013517,1e-6 0.01437,-2.645706 -0.05881,-5.292395 0,-7.937385 0.0089,-1.27218 -0.113326,-2.851416 1.992422,-2.851416 1.894438,0 2.006642,1.246514 2.006642,2.872766 0,1.66967 -10e-7,6.246363 0,7.916035 C 35.22444,31 37.774622,31 39,31 38.98578,28.048126 39.02968,25.095218 38.97571,22.144048 38.89885,20.359713 38.212823,18.388221 36.387729,17.484421 35.343606,17.14161 35.045063,17.011799 33.742745,17.011799 31.060737,17.011799 20.652644,17 16,17 c 0,4.666666 0,9.333334 0,13.999999 z"
         id="path2438"
         style="font-size:26.70637703px;font-style:normal;font-variant:normal;font-weight:bold;font-stretch:normal;text-align:start;line-height:125%;writing-mode:lr-tb;text-anchor:start;fill:#7fbce9;fill-opacity:1;stroke:none;font-family:URW Gothic L;-inkscape-font-specification:URW Gothic L Book" />
      <path
         inkscape:connector-curvature="0"
         d="m 16,31.999999 c 1.225378,0 3.774622,0 5,0 0.02003,-2.69044 -0.08349,-5.382579 0,-8.07176 0,-1.434446 0.209448,-2.71704 1.896799,-2.71704 1.935845,0 2.089684,0.969817 2.089684,2.817071 0,1.688236 0,6.283493 0,7.971729 1.225377,0 3.78814,1e-6 5.013517,1e-6 0.01437,-2.645706 -0.05881,-5.292395 0,-7.937385 0.0089,-1.27218 -0.113326,-2.851416 1.992422,-2.851416 1.894438,0 2.006642,1.246514 2.006642,2.872766 0,1.66967 -10e-7,6.246363 0,7.916035 C 35.22444,32 37.774622,32 39,32 38.98578,29.048126 39.02968,26.095218 38.97571,23.144048 38.89885,21.359713 38.212823,19.388221 36.387729,18.484421 35.343606,18.14161 35.045063,18.011799 33.742745,18.011799 31.060737,18.011799 20.652644,18 16,18 c 0,4.666666 0,9.333334 0,13.999999 z"
         id="text3190"
         style="font-size:26.70637703px;font-style:normal;font-variant:normal;font-weight:bold;font-stretch:normal;text-align:start;line-height:125%;writing-mode:lr-tb;text-anchor:start;fill:url(#linearGradient2411);fill-opacity:1;stroke:none;font-family:URW Gothic L;-inkscape-font-specification:URW Gothic L Book" />
      <path
         sodipodi:nodetypes="cccccccccccccc"
         inkscape:connector-curvature="0"
         id="path4004"
         d="m 25.5,23 0,8.5 c 1.367232,0 2.632769,0 4,0 l 0,-8.5 m 5.050848,0 -0.101696,8.5 c 1.367232,0 2.683615,0 4.050847,0 -0.02754,-2.931019 0.05862,-5.866257 -0.06816,-8.794497 -0.137395,-1.612564 -1.045249,-3.340184 -2.6281,-3.883677 -1.341458,-0.502675 -2.79396,-0.266797 -4.193367,-0.321826 -5.036791,0 -10.073581,0 -15.110372,0 0,4.333333 0,8.666667 0,13 1.367232,0 2.632768,0 4,0 l 0,-8.5"
         style="font-size:26.70637703px;font-style:normal;font-variant:normal;font-weight:bold;font-stretch:normal;text-align:start;line-height:125%;writing-mode:lr-tb;text-anchor:start;opacity:0.1;fill:none;stroke:url(#linearGradient4017);stroke-width:1.00000012;stroke-opacity:1;font-family:URW Gothic L;-inkscape-font-specification:URW Gothic L Book" />
    </g>
  </g>
</svg>

<?xml version="1.0" encoding="UTF-8" standalone="no"?>
<!-- Created with Inkscape (http://www.inkscape.org/) -->
<svg
   xmlns:dc="http://purl.org/dc/elements/1.1/"
   xmlns:cc="http://creativecommons.org/ns#"
   xmlns:rdf="http://www.w3.org/1999/02/22-rdf-syntax-ns#"
   xmlns:svg="http://www.w3.org/2000/svg"
   xmlns="http://www.w3.org/2000/svg"
   xmlns:xlink="http://www.w3.org/1999/xlink"
   xmlns:sodipodi="http://sodipodi.sourceforge.net/DTD/sodipodi-0.dtd"
   xmlns:inkscape="http://www.inkscape.org/namespaces/inkscape"
   version="1.0"
   width="48"
   height="48"
   id="svg3266"
   sodipodi:version="0.32"
   inkscape:version="0.46"
   sodipodi:docname="miro.svg"
   inkscape:output_extension="org.inkscape.output.svg.inkscape">
  <metadata
     id="metadata33">
    <rdf:RDF>
      <cc:Work
         rdf:about="">
        <dc:format>image/svg+xml</dc:format>
        <dc:type
           rdf:resource="http://purl.org/dc/dcmitype/StillImage" />
      </cc:Work>
    </rdf:RDF>
  </metadata>
  <sodipodi:namedview
     inkscape:window-height="794"
     inkscape:window-width="1440"
     inkscape:pageshadow="2"
     inkscape:pageopacity="0.0"
     guidetolerance="10.0"
     gridtolerance="10.0"
     objecttolerance="10.0"
     borderopacity="1.0"
     bordercolor="#666666"
     pagecolor="#ffffff"
     id="base"
     showgrid="false"
     inkscape:zoom="6.8648283"
     inkscape:cx="-9.6420969"
     inkscape:cy="24"
     inkscape:window-x="0"
     inkscape:window-y="24"
     inkscape:current-layer="svg3266" />
  <defs
     id="defs3268">
    <linearGradient
       id="linearGradient8838">
      <stop
         id="stop8840"
         style="stop-color:#000000;stop-opacity:1"
         offset="0" />
      <stop
         id="stop8842"
         style="stop-color:#000000;stop-opacity:0"
         offset="1" />
    </linearGradient>
    <linearGradient
       id="linearGradient2490">
      <stop
         id="stop2492"
         style="stop-color:#791235;stop-opacity:1"
         offset="0" />
      <stop
         id="stop2494"
         style="stop-color:#dd3b27;stop-opacity:1"
         offset="1" />
    </linearGradient>
    <linearGradient
       id="linearGradient3242">
      <stop
         id="stop3244"
         style="stop-color:#f8b17e;stop-opacity:1"
         offset="0" />
      <stop
         id="stop3246"
         style="stop-color:#e35d4f;stop-opacity:1"
         offset="0.26238" />
      <stop
         id="stop3248"
         style="stop-color:#c6262e;stop-opacity:1"
         offset="0.66093999" />
      <stop
         id="stop3250"
         style="stop-color:#690b54;stop-opacity:1"
         offset="1" />
    </linearGradient>
    <linearGradient
       id="linearGradient3202">
      <stop
         id="stop3204"
         style="stop-color:#ffffff;stop-opacity:1"
         offset="0" />
      <stop
         id="stop3206"
         style="stop-color:#d3eefc;stop-opacity:1"
         offset="1" />
    </linearGradient>
    <linearGradient
       id="linearGradient3230">
      <stop
         id="stop3232"
         style="stop-color:#ffffff;stop-opacity:1"
         offset="0" />
      <stop
         id="stop3234"
         style="stop-color:#ffffff;stop-opacity:0"
         offset="1" />
    </linearGradient>
    <linearGradient
       inkscape:collect="always"
       xlink:href="#linearGradient3230"
       id="linearGradient2408"
       gradientUnits="userSpaceOnUse"
       gradientTransform="translate(0,0.9999998)"
       x1="26.153599"
       y1="4.9999995"
       x2="26.153599"
       y2="44.233311" />
    <linearGradient
       inkscape:collect="always"
       xlink:href="#linearGradient3202"
       id="linearGradient2411"
       gradientUnits="userSpaceOnUse"
       gradientTransform="matrix(1.0395395,0,0,0.9504295,2.4213254,1.5862551)"
       x1="22.885227"
       y1="17.628952"
       x2="22.885227"
       y2="30.889549" />
    <radialGradient
       inkscape:collect="always"
       xlink:href="#linearGradient3242"
       id="radialGradient2415"
       gradientUnits="userSpaceOnUse"
       gradientTransform="matrix(0,1.6958206,-1.7757718,0,30.273358,-47.575099)"
       cx="32.806725"
       cy="3.5327499"
       fx="32.806725"
       fy="3.5327499"
       r="23" />
    <linearGradient
       inkscape:collect="always"
       xlink:href="#linearGradient2490"
       id="linearGradient2417"
       gradientUnits="userSpaceOnUse"
       gradientTransform="translate(51.417219,1.3502817)"
       x1="-23.916132"
       y1="43.707703"
       x2="-23.916132"
       y2="4.6497173" />
    <radialGradient
       inkscape:collect="always"
       xlink:href="#linearGradient8838"
       id="radialGradient2420"
       gradientUnits="userSpaceOnUse"
       gradientTransform="matrix(2.1647059,0,0,0.8470576,-111.5647,35.082353)"
       cx="62.625"
       cy="4.625"
       fx="62.625"
       fy="4.625"
       r="10.625" />
  </defs>
  <path
     style="opacity:0.3;fill:url(#radialGradient2420);fill-opacity:1;fill-rule:evenodd;stroke:none;stroke-width:0.99999987999999995;stroke-linecap:butt;stroke-linejoin:round;marker:none;marker-start:none;marker-mid:none;marker-end:none;stroke-miterlimit:4;stroke-dasharray:none;stroke-dashoffset:0;stroke-opacity:1;visibility:visible;display:inline;overflow:visible"
     id="path8836"
     d="M 47.000007,39 C 47.000007,43.970562 36.702555,47.999999 24.000007,47.999999 C 11.297459,47.999999 1.0000068,43.970562 1.0000068,39 C 1.0000068,34.029437 11.297459,30 24.000007,30 C 36.702555,30 47.000007,34.029437 47.000007,39 L 47.000007,39 z" />
  <path
     style="fill:url(#radialGradient2415);fill-opacity:1;fill-rule:evenodd;stroke:url(#linearGradient2417);stroke-width:0.99999988px;stroke-linecap:butt;stroke-linejoin:miter;stroke-opacity:1"
     id="path2421"
     d="M 1.5000006,31.761226 C 1.5000006,31.761226 10.115608,15.647729 22.458894,9.2294409 C 29.653279,5.4884898 41.244893,4.5285552 46.43013,13.320438 C 46.43013,13.320438 48.176874,36.419951 34.202924,42.922755 C 34.202924,42.922755 19.743769,50.687298 1.5000006,31.761226 z" />
  <path
     style="font-size:26.70637703px;font-style:normal;font-variant:normal;font-weight:bold;font-stretch:normal;text-align:start;line-height:125%;writing-mode:lr-tb;text-anchor:start;fill:#a1ceef;fill-opacity:1;stroke:none;stroke-width:1px;stroke-linecap:butt;stroke-linejoin:miter;stroke-opacity:1;font-family:URW Gothic L;-inkscape-font-specification:URW Gothic L Book"
     id="path2438"
     d="M 16,30.999999 C 17.225378,30.999999 19.774622,30.999999 21,30.999999 C 21.020028,28.309559 20.916511,25.61742 21,22.928239 C 21,21.493793 21.209448,20.211199 22.896799,20.211199 C 24.832644,20.211199 24.986483,21.181016 24.986483,23.02827 C 24.986483,24.716506 24.986483,29.311763 24.986483,30.999999 C 26.21186,30.999999 28.774623,31 30,31 C 30.014374,28.354294 29.941186,25.707605 30,23.062615 C 30.008937,21.790435 29.886674,20.211199 31.992422,20.211199 C 33.88686,20.211199 33.999064,21.457713 33.999064,23.083965 C 33.999064,24.753635 33.999063,29.330328 33.999064,31 C 35.22444,31 37.774622,31 39,31 C 38.985776,28.048126 39.029681,25.095218 38.975706,22.144048 C 38.898843,20.359713 38.212819,18.388221 36.387725,17.484421 C 35.343606,17.14161 35.045063,17.011799 33.742745,17.011799 C 31.060737,17.011799 20.652644,17 16,17 C 16,21.666666 16,26.333334 16,30.999999 z" />
  <path
     style="font-size:26.70637703px;font-style:normal;font-variant:normal;font-weight:bold;font-stretch:normal;text-align:start;line-height:125%;writing-mode:lr-tb;text-anchor:start;fill:url(#linearGradient2411);fill-opacity:1;stroke:none;stroke-width:1px;stroke-linecap:butt;stroke-linejoin:miter;stroke-opacity:1;font-family:URW Gothic L;-inkscape-font-specification:URW Gothic L Book"
     id="text3190"
     d="M 16,31.999999 C 17.225378,31.999999 19.774622,31.999999 21,31.999999 C 21.020028,29.309559 20.916511,26.61742 21,23.928239 C 21,22.493793 21.209448,21.211199 22.896799,21.211199 C 24.832644,21.211199 24.986483,22.181016 24.986483,24.02827 C 24.986483,25.716506 24.986483,30.311763 24.986483,31.999999 C 26.21186,31.999999 28.774623,32 30,32 C 30.014374,29.354294 29.941186,26.707605 30,24.062615 C 30.008937,22.790435 29.886674,21.211199 31.992422,21.211199 C 33.88686,21.211199 33.999064,22.457713 33.999064,24.083965 C 33.999064,25.753635 33.999063,30.330328 33.999064,32 C 35.22444,32 37.774622,32 39,32 C 38.985776,29.048126 39.029681,26.095218 38.975706,23.144048 C 38.898843,21.359713 38.212819,19.388221 36.387725,18.484421 C 35.343606,18.14161 35.045063,18.011799 33.742745,18.011799 C 31.060737,18.011799 20.652644,18 16,18 C 16,22.666666 16,27.333334 16,31.999999 z" />
  <path
     style="opacity:0.4;fill:none;fill-opacity:1;fill-rule:evenodd;stroke:url(#linearGradient2408);stroke-width:0.99999988px;stroke-linecap:butt;stroke-linejoin:miter;stroke-opacity:1"
     id="path3238"
     d="M 31.90625,7.4999998 C 28.681328,7.7425666 25.48596,8.7210967 22.90625,10.0625 C 11.707044,15.885887 3.6907335,29.825628 2.71875,31.5625 C 11.484066,40.437302 19.207332,43.094404 24.75,43.5 C 30.407274,43.913983 33.75,42.09375 33.75,42.09375 C 33.760173,42.083092 33.770592,42.072673 33.78125,42.0625 C 40.364812,38.998827 43.337844,31.95008 44.625,25.5 C 45.868154,19.27042 45.525212,13.993747 45.5,13.625 C 42.448467,8.6273583 37.213852,7.1007814 31.90625,7.4999998 z" />
</svg>
